X:12937
T:Pause Caf (W. Soulette)
M:3/4
L:1/8
K:G
Bc|d2d2gf|e2eAB|c2c2ef|(3gfe d2 Bc|\
d2d2gf|e2eAB|cB cd (3cBA|G4:|
|:GA|B3A Bd|A3 B ce|de dB cA|ed ^cd ed|\
B3A Bd|A3 B ce|de dB cA|1 c2B2:|2 G4||
